X:259
T:Return to Chernobyl
C:Michel Ferry
N:Tabledited by Mike Stangeland
L:1/8
Q:1/4=215
M:4/4
K:F
z8 |: "Dm"D2 DF AD FA | DF AF GF EC | "Am"A,2 A,C EA, CE | A,C EG AG EC | "Dm"D2 DF AD FA | 
DF AD (3EFG A=B | "C"c2 Gc Ec Gc |1 f"A7"e dc dc AF :|2 f"A7"e dc dc Ac |: d2 fd gd fd | 
(3ddd fd ef eA | "Gm"d2 fd gd fd | (3"C"eee ef eA BA |1 d2 fd gd fd | d2 fd gf eg | 
"A7"aa (3aaa ag (3ggg | gf (3fff eA BA :|2 d2 fd Ad fd | "Gm"Bd fd Bd fd | "C"ce ge ag fd | 
"A7"gf dc dc AF | "Dm"D8 | z8 | z8 | 
 

